material/.icons/material/gender-transgender.svg

<svg xmlns="http://www.w3.org/2000/svg" viewBox="0 0 24 24"><path d="M19.58 3H15V1h8v8h-2V4.41l-4.83 4.83A5 5 0 0113 16.9V19h2v2h-2v2h-2v-2H9v-2h2v-2.1a5 5 0 01-3.18-7.64L6.64 8.07l-1.4 1.39-1.41-1.42 1.4-1.39L3 4.42V8H1V1h7v2H4.41l2.23 2.24 1.44-1.43L9.5 5.23 8.06 6.66l1.17 1.18C10 7.31 11 7 12 7s1.96.3 2.75.83L19.58 3M12 9a3 3 0 00-3 3 3 3 0 003 3 3 3 0 003-3 3 3 0 00-3-3z"/></svg>

<?xml version="1.0" encoding="UTF-8"?><!DOCTYPE svg PUBLIC "-//W3C//DTD SVG 1.1//EN" "http://www.w3.org/Graphics/SVG/1.1/DTD/svg11.dtd"><svg xmlns="http://www.w3.org/2000/svg" xmlns:xlink="http://www.w3.org/1999/xlink" version="1.1" id="mdi-gender-transgender" width="24" height="24" viewBox="0 0 24 24"><path d="M19.58,3H15V1H23V9H21V4.41L16.17,9.24C16.69,10.03 17,11 17,12C17,14.42 15.28,16.44 13,16.9V19H15V21H13V23H11V21H9V19H11V16.9C8.72,16.44 7,14.42 7,12C7,11 7.3,10.04 7.82,9.26L6.64,8.07L5.24,9.46L3.83,8.04L5.23,6.65L3,4.42V8H1V1H8V3H4.41L6.64,5.24L8.08,3.81L9.5,5.23L8.06,6.66L9.23,7.84C10,7.31 11,7 12,7C13,7 13.96,7.3 14.75,7.83L19.58,3M12,9A3,3 0 0,0 9,12A3,3 0 0,0 12,15A3,3 0 0,0 15,12A3,3 0 0,0 12,9Z" /></svg>
